dist/assets/group-78.svg

<svg width="744" height="320" viewBox="0 0 744 320" fill="none" xmlns="http://www.w3.org/2000/svg">
<path d="M743.522 20C743.522 8.95429 734.568 0 723.522 0H171.053C99.8084 0 42.053 57.7553 42.053 129V299.969C42.053 311.014 51.0073 319.969 62.053 319.969H723.522C734.568 319.969 743.522 311.014 743.522 299.969V20Z" fill="white"/>
<g opacity="0.1">
<mask id="mask0_2_504" style="mask-type:alpha" maskUnits="userSpaceOnUse" x="587" y="0" width="157" height="277">
<path d="M587.865 0.5H719.522C732.501 0.5 743.022 11.0213 743.022 24V275.854H637.365C610.027 275.854 587.865 253.692 587.865 226.354V0.5Z" fill="url(#paint0_linear_2_504)" stroke="#6246E5"/>
</mask>
<g mask="url(#mask0_2_504)">
<path d="M782.841 140.189C782.841 160.129 776.759 178.163 766.95 191.2C757.141 204.237 743.628 212.254 728.743 212.254C713.858 212.254 700.345 204.237 690.536 191.2C680.727 178.163 674.645 160.129 674.645 140.189C674.645 120.248 680.727 102.215 690.536 89.1778C700.345 76.1409 713.858 68.1233 728.743 68.1233C743.628 68.1233 757.141 76.1409 766.95 89.1778C776.759 102.215 782.841 120.248 782.841 140.189Z" stroke="#6246E5"/>
<path d="M784.996 132.55C784.996 154.863 778.191 175.045 767.212 189.638C756.233 204.23 741.103 213.209 724.433 213.209C707.763 213.209 692.633 204.23 681.654 189.638C670.675 175.045 663.869 154.863 663.869 132.55C663.869 110.237 670.675 90.0552 681.654 75.4629C692.633 60.8708 707.763 51.8914 724.433 51.8914C741.103 51.8914 756.233 60.8708 767.212 75.4629C778.191 90.0552 784.996 110.237 784.996 132.55Z" stroke="#6246E5"/>
<path d="M787.152 126.344C787.152 150.767 779.703 172.858 767.684 188.833C755.665 204.807 739.098 214.641 720.841 214.641C702.584 214.641 686.017 204.807 673.998 188.833C661.979 172.858 654.53 150.767 654.53 126.344C654.53 101.921 661.979 79.8301 673.998 63.8555C686.017 47.8812 702.584 38.0468 720.841 38.0468C739.098 38.0468 755.665 47.8812 767.684 63.8555C779.703 79.8301 787.152 101.921 787.152 126.344Z" stroke="#6246E5"/>
<path d="M788.589 117.273C788.589 143.541 780.577 167.304 767.648 184.488C754.719 201.672 736.895 212.254 717.249 212.254C697.603 212.254 679.78 201.672 666.851 184.488C653.921 167.304 645.91 143.541 645.91 117.273C645.91 91.0049 653.921 67.2426 666.851 50.0586C679.78 32.8747 697.603 22.2922 717.249 22.2922C736.895 22.2922 754.719 32.8747 767.648 50.0586C780.577 67.2426 788.589 91.0049 788.589 117.273Z" stroke="#6246E5"/>
<path d="M790.025 108.441C790.025 136.489 781.471 161.863 767.664 180.213C753.858 198.563 734.822 209.867 713.837 209.867C692.852 209.867 673.816 198.563 660.009 180.213C646.203 161.863 637.648 136.489 637.648 108.441C637.648 80.3933 646.203 55.0198 660.009 36.6694C673.816 18.3192 692.852 7.01538 713.837 7.01538C734.822 7.01538 753.858 18.3192 767.664 36.6694C781.471 55.0198 790.025 80.3933 790.025 108.441Z" stroke="#6246E5"/>
<path d="M791.821 98.4158C791.821 129.232 782.423 157.112 767.251 177.277C752.079 197.441 731.158 209.867 708.09 209.867C685.022 209.867 664.1 197.441 648.928 177.277C633.757 157.112 624.358 129.232 624.358 98.4158C624.358 67.5994 633.757 39.7195 648.928 19.5548C664.1 -0.609597 685.022 -13.0356 708.09 -13.0356C731.158 -13.0356 752.079 -0.609597 767.251 19.5548C782.423 39.7195 791.821 67.5994 791.821 98.4158Z" stroke="#6246E5"/>
</g>
</g>
<g opacity="0.1">
<mask id="mask1_2_504" style="mask-type:alpha" maskUnits="userSpaceOnUse" x="0" y="36" width="284" height="284">
<rect x="283.423" y="36.6635" width="282.805" height="282.923" transform="rotate(90 283.423 36.6635)" fill="url(#paint1_linear_2_504)" stroke="#6246E5"/>
</mask>
<g mask="url(#mask1_2_504)">
<path d="M139.894 392.912C119.499 392.912 100.997 381.91 87.5768 364.048C74.1565 346.186 65.841 321.487 65.841 294.184C65.841 266.881 74.1565 242.182 87.5768 224.32C100.997 206.458 119.499 195.456 139.894 195.456C160.289 195.456 178.791 206.458 192.211 224.32C205.632 242.182 213.947 266.881 213.947 294.184C213.947 321.487 205.632 346.186 192.211 364.048C178.791 381.91 160.289 392.912 139.894 392.912Z" stroke="#6246E5"/>
<path d="M147.742 396.829C124.909 396.829 104.2 384.512 89.1819 364.523C74.1639 344.535 64.8603 316.898 64.8603 286.35C64.8603 255.802 74.1639 228.165 89.1819 208.177C104.2 188.188 124.909 175.872 147.742 175.872C170.575 175.872 191.284 188.188 206.302 208.177C221.32 228.165 230.624 255.802 230.624 286.35C230.624 316.898 221.32 344.535 206.302 364.523C191.284 384.512 170.575 396.829 147.742 396.829Z" stroke="#6246E5"/>
<path d="M154.118 400.746C129.118 400.746 106.447 387.26 90.009 365.382C73.5708 343.503 63.3888 313.255 63.3888 279.822C63.3888 246.39 73.5708 216.142 90.009 194.263C106.447 172.385 129.118 158.899 154.118 158.899C179.118 158.899 201.789 172.385 218.227 194.263C234.665 216.142 244.847 246.39 244.847 279.822C244.847 313.255 234.665 343.503 218.227 365.382C201.789 387.26 179.118 400.746 154.118 400.746Z" stroke="#6246E5"/>
<path d="M163.437 403.357C136.541 403.357 112.153 388.848 94.4727 365.316C76.7919 341.783 65.8413 309.25 65.8413 273.294C65.8413 237.338 76.7919 204.805 94.4727 181.273C112.153 157.74 136.541 143.231 163.437 143.231C190.334 143.231 214.721 157.74 232.402 181.273C250.083 204.805 261.033 237.338 261.033 273.294C261.033 309.25 250.083 341.783 232.402 365.316C214.721 388.848 190.334 403.357 163.437 403.357Z" stroke="#6246E5"/>
<path d="M172.511 405.968C143.787 405.968 117.743 390.473 98.8644 365.346C79.9854 340.218 68.2937 305.482 68.2937 267.092C68.2937 228.703 79.9854 193.966 98.8645 168.839C117.743 143.712 143.787 128.216 172.511 128.216C201.236 128.216 227.279 143.712 246.158 168.839C265.037 193.966 276.729 228.703 276.729 267.092C276.729 305.482 265.037 340.218 246.158 365.346C227.279 390.473 201.236 405.968 172.511 405.968Z" stroke="#6246E5"/>
<path d="M182.811 409.233C151.242 409.233 122.624 392.203 101.881 364.595C81.1382 336.986 68.2936 298.823 68.2936 256.647C68.2936 214.472 81.1382 176.309 101.881 148.7C122.624 121.092 151.242 104.062 182.811 104.062C214.38 104.062 242.998 121.092 263.741 148.7C284.484 176.309 297.329 214.472 297.329 256.647C297.329 298.823 284.484 336.986 263.741 364.595C242.998 392.203 214.38 409.233 182.811 409.233Z" stroke="#6246E5"/>
</g>
</g>
<defs>
<linearGradient id="paint0_linear_2_504" x1="698.118" y1="7.75341" x2="535.2" y2="239.716" gradientUnits="userSpaceOnUse">
<stop stop-color="#747DEF"/>
<stop offset="1" stop-color="#5E3BE1"/>
</linearGradient>
<linearGradient id="paint1_linear_2_504" x1="485.208" y1="44.1293" x2="363.155" y2="351.544" gradientUnits="userSpaceOnUse">
<stop stop-color="#747DEF"/>
<stop offset="1" stop-color="#5E3BE1"/>
</linearGradient>
</defs>
</svg>

<svg width="744" height="320" fill="none" xmlns="http://www.w3.org/2000/svg"><path d="M743.522 20c0-11.046-8.954-20-20-20H171.053c-71.245 0-129 57.755-129 129v170.969c0 11.045 8.954 20 20 20h661.469c11.046 0 20-8.955 20-20V20z" fill="#fff"/><g opacity=".1"><mask id="a" style="mask-type:alpha" maskUnits="userSpaceOnUse" x="587" y="0" width="157" height="277"><path d="M587.865.5h131.657c12.979 0 23.5 10.521 23.5 23.5v251.854H637.365c-27.338 0-49.5-22.162-49.5-49.5V.5z" fill="url(#paint0_linear_2_504)" stroke="#6246E5"/></mask><g mask="url(#a)" stroke="#6246E5"><path d="M782.841 140.189c0 19.94-6.082 37.974-15.891 51.011-9.809 13.037-23.322 21.054-38.207 21.054-14.885 0-28.398-8.017-38.207-21.054-9.809-13.037-15.891-31.071-15.891-51.011 0-19.941 6.082-37.974 15.891-51.011 9.809-13.037 23.322-21.055 38.207-21.055 14.885 0 28.398 8.018 38.207 21.055 9.809 13.037 15.891 31.07 15.891 51.011z"/><path d="M784.996 132.55c0 22.313-6.805 42.495-17.784 57.088-10.979 14.592-26.109 23.571-42.779 23.571s-31.8-8.979-42.779-23.571c-10.979-14.593-17.785-34.775-17.785-57.088 0-22.313 6.806-42.495 17.785-57.087 10.979-14.592 26.109-23.572 42.779-23.572s31.8 8.98 42.779 23.572c10.979 14.592 17.784 34.774 17.784 57.087z"/><path d="M787.152 126.344c0 24.423-7.449 46.514-19.468 62.489-12.019 15.974-28.586 25.808-46.843 25.808-18.257 0-34.824-9.834-46.843-25.808-12.019-15.975-19.468-38.066-19.468-62.489 0-24.423 7.449-46.514 19.468-62.488 12.019-15.975 28.586-25.81 46.843-25.81 18.257 0 34.824 9.835 46.843 25.81 12.019 15.974 19.468 38.065 19.468 62.488z"/><path d="M788.589 117.273c0 26.268-8.012 50.031-20.941 67.215-12.929 17.184-30.753 27.766-50.399 27.766s-37.469-10.582-50.398-27.766c-12.93-17.184-20.941-40.947-20.941-67.215s8.011-50.03 20.941-67.214c12.929-17.184 30.752-27.767 50.398-27.767 19.646 0 37.47 10.583 50.399 27.767 12.929 17.184 20.941 40.946 20.941 67.214z"/><path d="M790.025 108.441c0 28.048-8.554 53.422-22.361 71.772-13.806 18.35-32.842 29.654-53.827 29.654s-40.021-11.304-53.828-29.654c-13.806-18.35-22.361-43.724-22.361-71.772 0-28.048 8.555-53.421 22.361-71.772 13.807-18.35 32.843-29.654 53.828-29.654s40.021 11.304 53.827 29.654c13.807 18.35 22.361 43.724 22.361 71.772z"/><path d="M791.821 98.416c0 30.816-9.398 58.696-24.57 78.861-15.172 20.164-36.093 32.59-59.161 32.59-23.068 0-43.99-12.426-59.162-32.59-15.171-20.165-24.57-48.045-24.57-78.861 0-30.817 9.399-58.697 24.57-78.861C664.1-.61 685.022-13.035 708.09-13.035c23.068 0 43.989 12.425 59.161 32.59 15.172 20.164 24.57 48.044 24.57 78.86z"/></g></g><g opacity=".1"><mask id="b" style="mask-type:alpha" maskUnits="userSpaceOnUse" x="0" y="36" width="284" height="284"><path transform="rotate(90 283.423 36.663)" fill="url(#paint1_linear_2_504)" stroke="#6246E5" d="M283.423 36.663h282.805v282.923H283.423z"/></mask><g mask="url(#b)" stroke="#6246E5"><path d="M139.894 392.912c-20.395 0-38.897-11.002-52.317-28.864-13.42-17.862-21.736-42.561-21.736-69.864 0-27.303 8.316-52.002 21.736-69.864 13.42-17.862 31.922-28.864 52.317-28.864s38.897 11.002 52.317 28.864c13.421 17.862 21.736 42.561 21.736 69.864 0 27.303-8.315 52.002-21.736 69.864-13.42 17.862-31.922 28.864-52.317 28.864z"/><path d="M147.742 396.829c-22.833 0-43.542-12.317-58.56-32.306-15.018-19.988-24.322-47.625-24.322-78.173 0-30.548 9.304-58.185 24.322-78.173 15.018-19.989 35.727-32.305 58.56-32.305 22.833 0 43.542 12.316 58.56 32.305 15.018 19.988 24.322 47.625 24.322 78.173 0 30.548-9.304 58.185-24.322 78.173-15.018 19.989-35.727 32.306-58.56 32.306z"/><path d="M154.118 400.746c-25 0-47.671-13.486-64.109-35.364-16.438-21.879-26.62-52.127-26.62-85.56 0-33.432 10.182-63.68 26.62-85.559 16.438-21.878 39.109-35.364 64.109-35.364 25 0 47.671 13.486 64.109 35.364 16.438 21.879 26.62 52.127 26.62 85.559 0 33.433-10.182 63.681-26.62 85.56-16.438 21.878-39.109 35.364-64.109 35.364z"/><path d="M163.437 403.357c-26.896 0-51.284-14.509-68.964-38.041-17.681-23.533-28.632-56.066-28.632-92.022s10.95-68.489 28.632-92.021c17.68-23.533 42.068-38.042 68.964-38.042 26.897 0 51.284 14.509 68.965 38.042 17.681 23.532 28.631 56.065 28.631 92.021s-10.95 68.489-28.631 92.022c-17.681 23.532-42.068 38.041-68.965 38.041z"/><path d="M172.511 405.968c-28.724 0-54.768-15.495-73.647-40.622-18.879-25.128-30.57-59.864-30.57-98.254 0-38.389 11.691-73.126 30.57-98.253 18.879-25.127 44.923-40.623 73.647-40.623 28.725 0 54.768 15.496 73.647 40.623 18.879 25.127 30.571 59.864 30.571 98.253 0 38.39-11.692 73.126-30.571 98.254-18.879 25.127-44.922 40.622-73.647 40.622z"/><path d="M182.811 409.233c-31.569 0-60.187-17.03-80.93-44.638-20.743-27.609-33.587-65.772-33.587-107.948 0-42.175 12.844-80.338 33.587-107.947 20.743-27.608 49.361-44.638 80.93-44.638 31.569 0 60.187 17.03 80.93 44.638 20.743 27.609 33.588 65.772 33.588 107.947 0 42.176-12.845 80.339-33.588 107.948-20.743 27.608-49.361 44.638-80.93 44.638z"/></g></g><defs><linearGradient id="paint0_linear_2_504" x1="698.118" y1="7.753" x2="535.2" y2="239.716" gradientUnits="userSpaceOnUse"><stop stop-color="#747DEF"/><stop offset="1" stop-color="#5E3BE1"/></linearGradient><linearGradient id="paint1_linear_2_504" x1="485.208" y1="44.129" x2="363.155" y2="351.544" gradientUnits="userSpaceOnUse"><stop stop-color="#747DEF"/><stop offset="1" stop-color="#5E3BE1"/></linearGradient></defs></svg>
